public/style/workarea/images/icons/exe-preview-icon-green.svg

<svg fill="none" height="16" viewBox="0 0 17 16" width="17" xmlns="http://www.w3.org/2000/svg" xmlns:xlink="http://www.w3.org/1999/xlink"><clipPath id="a"><path d="m.499756 0h16v16h-16z"/></clipPath><g clip-path="url(#a)" stroke="#0ba1a1" stroke-linecap="round" stroke-linejoin="round" stroke-width="1.5"><path d="m1.53882 8.0597s2.5611-5.1222 7.04303-5.1222c4.48195 0 7.04305 5.1222 7.04305 5.1222s-2.5611 5.1222-7.04305 5.1222c-4.48193 0-7.04303-5.1222-7.04303-5.1222z"/><path d="m8.49976 10c1.10457 0 2.00004-.89543 2.00004-2s-.89547-2-2.00004-2-2 .89543-2 2 .89543 2 2 2z"/></g></svg>

<svg width="17" height="16" viewBox="0 0 17 16" fill="none" xmlns="http://www.w3.org/2000/svg">
<g clip-path="url(#clip0_17_884)">
<path d="M1.53882 8.0597C1.53882 8.0597 4.09992 2.9375 8.58185 2.9375C13.0638 2.9375 15.6249 8.0597 15.6249 8.0597C15.6249 8.0597 13.0638 13.1819 8.58185 13.1819C4.09992 13.1819 1.53882 8.0597 1.53882 8.0597Z" stroke="#0BA1A1" stroke-width="1.5" stroke-linecap="round" stroke-linejoin="round"/>
<path d="M8.49976 10C9.60433 10 10.4998 9.10457 10.4998 8C10.4998 6.89543 9.60433 6 8.49976 6C7.39519 6 6.49976 6.89543 6.49976 8C6.49976 9.10457 7.39519 10 8.49976 10Z" stroke="#0BA1A1" stroke-width="1.5" stroke-linecap="round" stroke-linejoin="round"/>
</g>
<defs>
<clipPath id="clip0_17_884">
<rect width="16" height="16" fill="white" transform="translate(0.499756)"/>
</clipPath>
</defs>
</svg>
